X: 512
T: Jiefu huan xiaoyi
%%abc-version 2.0
%%abcx-abcm2ps-target-version 5.9.1 (29 Sep 2008)
%%abc-creator hum2abc beta
%%abcx-conversion-date 2013/10/02 07:52:30
%%abc-edited-by Helmut Schaffrath
%%humdrum-veritas 3938097851
%%humdrum-veritas-data 2794793808
%%continueall 1
%%barnumbers 0
L: 1/8
M: 2/4
K: A
B e e d/ B/ [I:setbarnb 1]| 
e dB2 | 
e B A G/ F/ | 
E E/ F/ C B, | 
B B e d | 
B F/ C/E2 | 
A F/ F/ E F/ E/ | 
B,4 |]  



